X:706
L:1/8
Q:1/4=125
M:6/8
K:D
 A |: FAd FAd | BAB e2 d | cBc ABc | dcd f2 A | FAd FAd | BAB e2 d | cBc ABc |1 d3- d2 A :|2 
 d3- d2 d |: faa eaa | ded cBA | dcd ede | faf e3 | ded A2 A | g2 g f3 | ede fed |1 B2 c d2 d :|

